X:137
T:Bimis ag \'Ol's ag P\'ogadh na mBan
R:jig
Z:id:hn-jig-137
M:6/8
K:G
DGG ABB|cBc d2G|DGG B2d|cAG AGF|DGG ABB|cBc def|gbg afd|cAG G3:|
|:GBd ~g3|gfd eff|GBd ~g3|gfd cAG|GBd ~g3|gag efg|abg afd|cAG G3:|

